src/sustainations_dao_assets/assets/images/logo/on_chain.svg

<svg xmlns="http://www.w3.org/2000/svg" width="85" height="42" viewBox="0 0 85 42" fill="none">
<path d="M53.1965 1C50.871 1 48.336 2.21323 45.6566 4.60293C44.3855 5.73528 43.2877 6.94851 42.4644 7.91909C42.4644 7.91909 42.4644 7.91909 42.4716 7.92645V7.91909C42.4716 7.91909 43.7716 9.36026 45.2088 10.9044C45.9816 9.97056 47.0938 8.6985 48.3721 7.55145C50.7554 5.42645 52.3082 4.97793 53.1965 4.97793C56.5404 4.97793 59.2559 7.67645 59.2559 10.9926C59.2559 14.2867 56.5332 16.9852 53.1965 17.0073C53.0448 17.0073 52.8498 16.9852 52.6043 16.9338C53.5793 17.3602 54.6265 17.6691 55.6232 17.6691C61.7476 17.6691 62.9465 13.6029 63.0259 13.3088C63.2065 12.5661 63.3003 11.7867 63.3003 10.9853C63.3003 5.48528 58.7648 1 53.1965 1Z" fill="url(#paint0_linear_1820_44)"/>
<path d="M31.804 21.0001C34.1296 21.0001 36.6645 19.7869 39.344 17.3972C40.6151 16.2649 41.7128 15.0516 42.5362 14.081C42.5362 14.081 42.5362 14.081 42.5289 14.0737V14.081C42.5289 14.081 41.229 12.6399 39.7917 11.0958C39.019 12.0296 37.9068 13.3016 36.6284 14.4487C34.2451 16.5737 32.6923 17.0222 31.804 17.0222C28.4602 17.0149 25.7446 14.3163 25.7446 11.0002C25.7446 7.70607 28.4674 5.00755 31.804 4.98549C31.9557 4.98549 32.1507 5.00755 32.3962 5.05902C31.4212 4.63255 30.374 4.32373 29.3774 4.32373C23.253 4.32373 22.0613 8.38989 21.9746 8.67666C21.7941 9.42665 21.7002 10.1987 21.7002 11.0002C21.7002 16.5149 26.2357 21.0001 31.804 21.0001Z" fill="url(#paint1_linear_1820_44)"/>
<path d="M55.6083 17.5808C52.4739 17.4999 49.2167 14.9852 48.5522 14.3602C46.8333 12.7426 42.8684 8.36762 42.5578 8.02203C39.6545 4.70587 35.7184 1 31.804 1H31.7968H31.7895C27.0374 1.02206 23.0435 4.30146 21.9746 8.67644C22.0541 8.38968 23.6213 4.24264 29.3701 4.38969C32.5045 4.47058 35.7762 7.02204 36.4479 7.64704C38.1667 9.26468 42.1317 13.6397 42.4423 13.9853C45.3456 17.2941 49.2817 20.9999 53.1961 20.9999H53.2033H53.2105C57.9627 20.9779 61.9638 17.6985 63.0255 13.3235C62.9388 13.6103 61.3644 17.7205 55.6083 17.5808Z" fill="#29ABE2"/>
<path d="M3.7337 38V29.576H2.7717C2.5637 30.486 1.7707 31.175 0.600695 31.227V31.851H2.6677V38H3.7337ZM8.68406 37.22C8.06005 37.22 7.60505 36.986 7.26705 36.622C6.70805 36.037 6.47405 35.062 6.47405 33.788C6.47405 32.514 6.70805 31.539 7.26705 30.954C7.60505 30.59 8.06005 30.356 8.68406 30.356C9.30805 30.356 9.76306 30.59 10.1011 30.954C10.6601 31.539 10.8941 32.514 10.8941 33.788C10.8941 35.062 10.6601 36.037 10.1011 36.622C9.76306 36.986 9.30805 37.22 8.68406 37.22ZM8.68406 38.182C9.82805 38.182 10.6471 37.675 11.1801 36.895C11.7651 36.05 11.9601 34.932 11.9601 33.788C11.9601 32.644 11.7651 31.526 11.1801 30.681C10.6471 29.901 9.82805 29.394 8.68406 29.394C7.54005 29.394 6.72105 29.901 6.18805 30.681C5.60305 31.526 5.40805 32.644 5.40805 33.788C5.40805 34.932 5.60305 36.05 6.18805 36.895C6.72105 37.675 7.54005 38.182 8.68406 38.182ZM16.644 37.22C16.02 37.22 15.565 36.986 15.227 36.622C14.668 36.037 14.434 35.062 14.434 33.788C14.434 32.514 14.668 31.539 15.227 30.954C15.565 30.59 16.02 30.356 16.644 30.356C17.268 30.356 17.723 30.59 18.061 30.954C18.62 31.539 18.854 32.514 18.854 33.788C18.854 35.062 18.62 36.037 18.061 36.622C17.723 36.986 17.268 37.22 16.644 37.22ZM16.644 38.182C17.788 38.182 18.607 37.675 19.14 36.895C19.725 36.05 19.92 34.932 19.92 33.788C19.92 32.644 19.725 31.526 19.14 30.681C18.607 29.901 17.788 29.394 16.644 29.394C15.5 29.394 14.681 29.901 14.148 30.681C13.563 31.526 13.368 32.644 13.368 33.788C13.368 34.932 13.563 36.05 14.148 36.895C14.681 37.675 15.5 38.182 16.644 38.182ZM21.965 31.474C21.965 30.811 22.459 30.317 23.083 30.317C23.733 30.317 24.214 30.811 24.214 31.474C24.214 32.137 23.733 32.631 23.083 32.631C22.459 32.631 21.965 32.137 21.965 31.474ZM21.055 31.474C21.055 32.605 21.978 33.502 23.083 33.502C24.201 33.502 25.137 32.605 25.137 31.474C25.137 30.343 24.201 29.446 23.083 29.446C21.978 29.446 21.055 30.343 21.055 31.474ZM27.113 36.037C27.113 35.374 27.607 34.88 28.231 34.88C28.881 34.88 29.362 35.374 29.362 36.037C29.362 36.7 28.881 37.194 28.231 37.194C27.607 37.194 27.113 36.7 27.113 36.037ZM26.203 36.037C26.203 37.168 27.126 38.065 28.231 38.065C29.349 38.065 30.285 37.168 30.285 36.037C30.285 34.906 29.349 34.009 28.231 34.009C27.126 34.009 26.203 34.906 26.203 36.037ZM23.122 38L29.193 29.576H28.192L22.095 38H23.122ZM37.7372 31.591C35.9432 31.591 34.6172 32.969 34.6172 34.88C34.6172 36.804 35.9432 38.182 37.7372 38.182C39.5312 38.182 40.8572 36.804 40.8572 34.88C40.8572 32.969 39.5312 31.591 37.7372 31.591ZM37.7372 32.527C38.8552 32.527 39.8172 33.372 39.8172 34.88C39.8172 36.401 38.8552 37.246 37.7372 37.246C36.6192 37.246 35.6572 36.401 35.6572 34.88C35.6572 33.372 36.6192 32.527 37.7372 32.527ZM43.5003 34.334C43.5003 33.359 44.0593 32.527 45.0603 32.527C46.1913 32.527 46.6073 33.255 46.6073 34.165V38H47.6473V34.009C47.6473 32.657 46.9193 31.591 45.4243 31.591C44.6053 31.591 43.8773 31.981 43.4743 32.709V31.773H42.4603V38H43.5003V34.334ZM52.9361 34.724V33.814H49.4651V34.724H52.9361ZM57.4902 32.527C58.6082 32.527 59.1152 33.294 59.2842 33.957L60.2202 33.554C59.9602 32.566 59.0892 31.591 57.4902 31.591C55.7352 31.591 54.4092 32.943 54.4092 34.88C54.4092 36.778 55.7092 38.182 57.5032 38.182C59.1022 38.182 59.9732 37.168 60.2722 36.245L59.3622 35.842C59.1802 36.414 58.6862 37.246 57.5032 37.246C56.3982 37.246 55.4492 36.375 55.4492 34.88C55.4492 33.372 56.3982 32.527 57.4902 32.527ZM62.7972 34.282C62.7972 33.32 63.3692 32.527 64.3572 32.527C65.4882 32.527 65.9042 33.255 65.9042 34.165V38H66.9442V34.009C66.9442 32.657 66.2162 31.591 64.7212 31.591C63.9152 31.591 63.2002 31.955 62.7972 32.605V28.601H61.7572V38H62.7972V34.282ZM68.4499 36.349C68.4499 37.298 69.2169 38.182 70.5039 38.182C71.6219 38.182 72.2979 37.571 72.5709 37.064C72.5709 37.545 72.6229 37.857 72.6489 38H73.6629C73.6239 37.805 73.5849 37.48 73.5849 36.96V33.814C73.5849 32.605 72.8439 31.591 71.0759 31.591C69.7369 31.591 68.6969 32.397 68.5669 33.58L69.5549 33.814C69.6459 33.021 70.1919 32.475 71.1019 32.475C72.0769 32.475 72.5449 33.008 72.5449 33.71C72.5449 33.983 72.4409 34.178 71.9859 34.243L70.3089 34.49C69.2169 34.646 68.4499 35.257 68.4499 36.349ZM70.6339 37.298C69.9189 37.298 69.4899 36.804 69.4899 36.297C69.4899 35.686 69.9189 35.348 70.5169 35.257L72.5449 34.958V35.374C72.5449 36.7 71.7129 37.298 70.6339 37.298ZM76.5843 38V31.773H75.5443V38H76.5843ZM75.2843 29.316C75.2843 29.745 75.6353 30.096 76.0643 30.096C76.4933 30.096 76.8443 29.745 76.8443 29.316C76.8443 28.887 76.4933 28.536 76.0643 28.536C75.6353 28.536 75.2843 28.887 75.2843 29.316ZM79.6565 34.334C79.6565 33.359 80.2155 32.527 81.2165 32.527C82.3475 32.527 82.7635 33.255 82.7635 34.165V38H83.8035V34.009C83.8035 32.657 83.0755 31.591 81.5805 31.591C80.7615 31.591 80.0335 31.981 79.6305 32.709V31.773H78.6165V38H79.6565V34.334Z" fill="white"/>
<defs>
<linearGradient id="paint0_linear_1820_44" x1="47.9369" y1="2.31872" x2="61.9294" y2="16.5508" gradientUnits="userSpaceOnUse">
<stop offset="0.21" stop-color="#F15A24"/>
<stop offset="0.6841" stop-color="#FBB03B"/>
</linearGradient>
<linearGradient id="paint1_linear_1820_44" x1="37.0636" y1="19.6814" x2="23.0711" y2="5.44938" gradientUnits="userSpaceOnUse">
<stop offset="0.21" stop-color="#ED1E79"/>
<stop offset="0.8929" stop-color="#522785"/>
</linearGradient>
</defs>
</svg>

<?xml version="1.0" encoding="utf-8"?>
<!-- Generator: Adobe Illustrator 22.1.0, SVG Export Plug-In . SVG Version: 6.00 Build 0)  -->
<svg version="1.1" id="Layer_1" xmlns="http://www.w3.org/2000/svg" xmlns:xlink="http://www.w3.org/1999/xlink" x="0px" y="0px"
	 viewBox="0 0 85 42" style="enable-background:new 0 0 85 42;" xml:space="preserve">
<style type="text/css">
	.st0{fill:url(#SVGID_1_);}
	.st1{fill:url(#SVGID_2_);}
	.st2{fill:#29ABE2;}
	.st3{fill:#1D1D1B;}
</style>
<linearGradient id="SVGID_1_" gradientUnits="userSpaceOnUse" x1="47.8462" y1="41.5943" x2="61.8387" y2="27.3622" gradientTransform="matrix(1 0 0 -1 0 44)">
	<stop  offset="0.21" style="stop-color:#F15A24"/>
	<stop  offset="0.6841" style="stop-color:#FBB03B"/>
</linearGradient>
<path class="st0" d="M53.2,1c-2.3,0-4.9,1.2-7.5,3.6c-1.3,1.1-2.4,2.3-3.2,3.3c0,0,0,0,0,0v0c0,0,1.3,1.4,2.7,3
	c0.8-0.9,1.9-2.2,3.2-3.4C50.8,5.4,52.3,5,53.2,5c3.3,0,6.1,2.7,6.1,6c0,3.3-2.7,6-6.1,6c-0.2,0-0.3,0-0.6-0.1c1,0.4,2,0.7,3,0.7
	c6.1,0,7.3-4.1,7.4-4.4c0.2-0.7,0.3-1.5,0.3-2.3C63.3,5.5,58.8,1,53.2,1z"/>
<linearGradient id="SVGID_2_" gradientUnits="userSpaceOnUse" x1="37.1549" y1="24.406" x2="23.1624" y2="38.638" gradientTransform="matrix(1 0 0 -1 0 44)">
	<stop  offset="0.21" style="stop-color:#ED1E79"/>
	<stop  offset="0.8929" style="stop-color:#522785"/>
</linearGradient>
<path class="st1" d="M31.8,21c2.3,0,4.9-1.2,7.5-3.6c1.3-1.1,2.4-2.3,3.2-3.3c0,0,0,0,0,0v0c0,0-1.3-1.4-2.7-3
	c-0.8,0.9-1.9,2.2-3.2,3.4c-2.4,2.1-3.9,2.6-4.8,2.6c-3.3,0-6.1-2.7-6.1-6c0-3.3,2.7-6,6.1-6c0.2,0,0.3,0,0.6,0.1
	c-1-0.4-2-0.7-3-0.7c-6.1,0-7.3,4.1-7.4,4.4c-0.2,0.7-0.3,1.5-0.3,2.3C21.7,16.5,26.2,21,31.8,21z"/>
<path class="st2" d="M55.6,17.6c-3.1-0.1-6.4-2.6-7.1-3.2c-1.7-1.6-5.7-6-6-6.3c-2.9-3.3-6.8-7-10.8-7h0h0C27,1,23,4.3,22,8.7
	c0.1-0.3,1.6-4.4,7.4-4.3c3.1,0.1,6.4,2.6,7.1,3.3c1.7,1.6,5.7,6,6,6.3c2.9,3.3,6.8,7,10.8,7h0h0c4.8,0,8.8-3.3,9.8-7.7
	C62.9,13.6,61.4,17.7,55.6,17.6z"/>
<path class="st3" d="M3.7,38v-8.4h-1c-0.2,0.9-1,1.6-2.2,1.7v0.6h2.1V38H3.7z M8.7,37.2c-0.6,0-1.1-0.2-1.4-0.6
	c-0.6-0.6-0.8-1.6-0.8-2.8c0-1.3,0.2-2.2,0.8-2.8c0.3-0.4,0.8-0.6,1.4-0.6c0.6,0,1.1,0.2,1.4,0.6c0.6,0.6,0.8,1.6,0.8,2.8
	c0,1.3-0.2,2.2-0.8,2.8C9.8,37,9.3,37.2,8.7,37.2z M8.7,38.2c1.1,0,2-0.5,2.5-1.3c0.6-0.8,0.8-2,0.8-3.1c0-1.1-0.2-2.3-0.8-3.1
	c-0.5-0.8-1.4-1.3-2.5-1.3c-1.1,0-2,0.5-2.5,1.3c-0.6,0.8-0.8,2-0.8,3.1c0,1.1,0.2,2.3,0.8,3.1C6.7,37.7,7.5,38.2,8.7,38.2z
	 M16.6,37.2c-0.6,0-1.1-0.2-1.4-0.6c-0.6-0.6-0.8-1.6-0.8-2.8c0-1.3,0.2-2.2,0.8-2.8c0.3-0.4,0.8-0.6,1.4-0.6c0.6,0,1.1,0.2,1.4,0.6
	c0.6,0.6,0.8,1.6,0.8,2.8c0,1.3-0.2,2.2-0.8,2.8C17.7,37,17.3,37.2,16.6,37.2z M16.6,38.2c1.1,0,2-0.5,2.5-1.3
	c0.6-0.8,0.8-2,0.8-3.1c0-1.1-0.2-2.3-0.8-3.1c-0.5-0.8-1.4-1.3-2.5-1.3c-1.1,0-2,0.5-2.5,1.3c-0.6,0.8-0.8,2-0.8,3.1
	c0,1.1,0.2,2.3,0.8,3.1C14.7,37.7,15.5,38.2,16.6,38.2z M22,31.5c0-0.7,0.5-1.2,1.1-1.2c0.6,0,1.1,0.5,1.1,1.2s-0.5,1.2-1.1,1.2
	C22.5,32.6,22,32.1,22,31.5z M21.1,31.5c0,1.1,0.9,2,2,2c1.1,0,2.1-0.9,2.1-2c0-1.1-0.9-2-2.1-2C22,29.4,21.1,30.3,21.1,31.5z
	 M27.1,36c0-0.7,0.5-1.2,1.1-1.2c0.6,0,1.1,0.5,1.1,1.2c0,0.7-0.5,1.2-1.1,1.2C27.6,37.2,27.1,36.7,27.1,36z M26.2,36
	c0,1.1,0.9,2,2,2c1.1,0,2.1-0.9,2.1-2s-0.9-2-2.1-2C27.1,34,26.2,34.9,26.2,36z M23.1,38l6.1-8.4h-1L22.1,38H23.1z M37.7,31.6
	c-1.8,0-3.1,1.4-3.1,3.3c0,1.9,1.3,3.3,3.1,3.3c1.8,0,3.1-1.4,3.1-3.3C40.9,33,39.5,31.6,37.7,31.6z M37.7,32.5
	c1.1,0,2.1,0.8,2.1,2.4c0,1.5-1,2.4-2.1,2.4s-2.1-0.8-2.1-2.4C35.7,33.4,36.6,32.5,37.7,32.5z M43.5,34.3c0-1,0.6-1.8,1.6-1.8
	c1.1,0,1.5,0.7,1.5,1.6V38h1v-4c0-1.4-0.7-2.4-2.2-2.4c-0.8,0-1.5,0.4-2,1.1v-0.9h-1V38h1V34.3z M52.9,34.7v-0.9h-3.5v0.9H52.9z
	 M57.5,32.5c1.1,0,1.6,0.8,1.8,1.4l0.9-0.4c-0.3-1-1.1-2-2.7-2c-1.8,0-3.1,1.4-3.1,3.3c0,1.9,1.3,3.3,3.1,3.3c1.6,0,2.5-1,2.8-1.9
	l-0.9-0.4c-0.2,0.6-0.7,1.4-1.9,1.4c-1.1,0-2.1-0.9-2.1-2.4C55.4,33.4,56.4,32.5,57.5,32.5z M62.8,34.3c0-1,0.6-1.8,1.6-1.8
	c1.1,0,1.5,0.7,1.5,1.6V38h1v-4c0-1.4-0.7-2.4-2.2-2.4c-0.8,0-1.5,0.4-1.9,1v-4h-1V38h1V34.3z M68.4,36.3c0,0.9,0.8,1.8,2.1,1.8
	c1.1,0,1.8-0.6,2.1-1.1c0,0.5,0.1,0.8,0.1,0.9h1c0-0.2-0.1-0.5-0.1-1v-3.1c0-1.2-0.7-2.2-2.5-2.2c-1.3,0-2.4,0.8-2.5,2l1,0.2
	c0.1-0.8,0.6-1.3,1.5-1.3c1,0,1.4,0.5,1.4,1.2c0,0.3-0.1,0.5-0.6,0.5l-1.7,0.2C69.2,34.6,68.4,35.3,68.4,36.3z M70.6,37.3
	c-0.7,0-1.1-0.5-1.1-1c0-0.6,0.4-0.9,1-1l2-0.3v0.4C72.5,36.7,71.7,37.3,70.6,37.3z M76.6,38v-6.2h-1V38H76.6z M75.3,29.3
	c0,0.4,0.4,0.8,0.8,0.8s0.8-0.4,0.8-0.8s-0.4-0.8-0.8-0.8S75.3,28.9,75.3,29.3z M79.7,34.3c0-1,0.6-1.8,1.6-1.8
	c1.1,0,1.5,0.7,1.5,1.6V38h1v-4c0-1.4-0.7-2.4-2.2-2.4c-0.8,0-1.5,0.4-1.9,1.1v-0.9h-1V38h1V34.3z"/>
</svg>
